img/subtract-20.svg

<svg fill="none" height="553" viewBox="0 0 653 553" width="653" xmlns="http://www.w3.org/2000/svg"><path clip-rule="evenodd" d="m501.236 631.943c102.793-57.697 172.27-167.882 172.27-294.324 0-186.195-150.658-337.13609-336.505-337.13609-185.846 0-336.504906 150.94109-336.504906 337.13609 0 109.796 52.388106 207.333 133.486906 268.89l12.344-15.462c16.465-20.624 24.923-46.521 23.812-72.907l-7.77-184.426c-.313-7.423.889-14.832 3.528-21.774l50.458-132.651c2.877-7.568 11.004-11.73 18.813-9.633 8.229 2.209 13.218 10.566 11.267 18.875l-30.329 129.172c-1.981 8.439-1.932 17.23.147 25.648l24.168 97.88c2.147 8.694 14.215 9.392 17.348 1.002l6.093-16.324c4.909-13.154 7.645-27.022 8.102-41.058l1.54-47.35c.32-9.885 8.637-17.604 18.499-17.172 8.609.379 15.701 6.901 16.811 15.462l14.32 110.446c4.666 35.986-1.497 72.548-17.702 105.002l-55.922 112.008c27.898 7.505 57.228 11.507 87.491 11.507 7.825 0 15.587-.267 23.278-.794l-5.999-22.432c-6.154-23.014-7.746-47.015-4.682-70.641l16.839-129.872c1.11-8.562 8.202-15.084 16.811-15.461 9.862-.432 18.179 7.287 18.499 17.172l1.54 47.35c.455 14.036 3.193 27.904 8.102 41.058l6.093 16.324c3.133 8.389 15.201 7.691 17.348-1.004l24.168-97.88c2.079-8.416 2.128-17.207.147-25.648l-30.329-129.17c-1.952-8.309 3.038-16.668 11.267-18.876 7.808-2.096 15.934 2.064 18.813 9.633l50.458 132.651c2.639 6.943 3.839 14.351 3.527 21.773l-6.58 156.207c-.392 9.307-2.138 18.312-5.065 26.799z" fill="#f66" fill-rule="evenodd"/></svg>

<svg width="653" height="553" viewBox="0 0 653 553" fill="none" xmlns="http://www.w3.org/2000/svg">
<path fill-rule="evenodd" clip-rule="evenodd" d="M501.236 631.943C604.029 574.246 673.506 464.061 673.506 337.619C673.506 151.424 522.848 0.48291 337.001 0.48291C151.155 0.48291 0.496094 151.424 0.496094 337.619C0.496094 447.415 52.8842 544.952 133.983 606.509L146.327 591.047C162.792 570.423 171.25 544.526 170.139 518.14L162.369 333.714C162.056 326.291 163.258 318.882 165.897 311.94L216.355 179.289C219.232 171.721 227.359 167.559 235.168 169.656C243.397 171.865 248.386 180.222 246.435 188.531L216.106 317.703C214.125 326.142 214.174 334.933 216.253 343.351L240.421 441.231C242.568 449.925 254.636 450.623 257.769 442.233L263.862 425.909C268.771 412.755 271.507 398.887 271.964 384.851L273.504 337.501C273.824 327.616 282.141 319.897 292.003 320.329C300.612 320.708 307.704 327.23 308.814 335.791L323.134 446.237C327.8 482.223 321.637 518.785 305.432 551.239L249.51 663.247C277.408 670.752 306.738 674.754 337.001 674.754C344.826 674.754 352.588 674.487 360.279 673.96L354.28 651.528C348.126 628.514 346.534 604.513 349.598 580.887L366.437 451.015C367.547 442.453 374.639 435.931 383.248 435.554C393.11 435.122 401.427 442.841 401.747 452.726L403.287 500.076C403.742 514.112 406.48 527.98 411.389 541.134L417.482 557.458C420.615 565.847 432.683 565.149 434.83 556.454L458.998 458.574C461.077 450.158 461.126 441.367 459.145 432.926L428.816 303.756C426.864 295.447 431.854 287.088 440.083 284.88C447.891 282.784 456.017 286.944 458.896 294.513L509.354 427.164C511.993 434.107 513.193 441.515 512.881 448.937L506.301 605.144C505.909 614.451 504.163 623.456 501.236 631.943Z" fill="#FF6666"/>
</svg>
